X: 1
T: Tuulas's
R: waltz
M: 3/4
L: 1/8
K: G
C: MAC
|:D2G DGA | B2C- C2C | D2G DGA | B2c BAG | 
D2G DGA | B2 D2 AB | C3  BcB  | BA2- AAG :| 
|: Bcd- dBc | d2 f2 d2 | Bcd- df2 | g2 b2 f2 |
|1 g2 a2 f2 | e2 g2 d2 | B2B  cdB  | BA2- AAG :|
|2 g2 d'2 f2 | g2 b2 f2 | g2 a2 f2  | gfe dcB  ||
e2e def | g2B- B2B | e2e def| b2 f2 g2 | 
e2e def | g2B- B2B | A2A GAB | c6 | 
e2e def | g2B- B2B | e2e def| b4 f2 | 
e2e def | g2 B2 fg |  A2A GAB | c6 |
